src/assets/images/benefits/06.svg

<svg width="160" height="160" viewBox="0 0 160 160" fill="none" xmlns="http://www.w3.org/2000/svg">
<rect x="1" y="1" width="158" height="158" rx="39" fill="#171E25"/>
<g filter="url(#filter0_d_2_2382)">
<g clip-path="url(#clip0_2_2382)">
<path d="M108 80C108 95.4631 95.463 108 79.9999 108C64.5368 108 51.9999 95.4631 51.9999 80C51.9999 64.5369 64.5368 52 79.9999 52C95.4662 52 108 64.5369 108 80Z" fill="url(#paint0_linear_2_2382)"/>
<path d="M65.8134 80.9408L65.9343 80.751L73.2182 69.3562C73.3246 69.1893 73.5749 69.2066 73.6554 69.3878C74.8723 72.115 75.9223 75.5067 75.4304 77.6182C75.2204 78.4869 74.6451 79.6636 73.9978 80.751C73.9143 80.9092 73.8223 81.0646 73.7245 81.2141C73.6784 81.2832 73.6008 81.3235 73.5173 81.3235H66.0263C65.8249 81.3235 65.707 81.1048 65.8134 80.9408Z" fill="#10151A"/>
<path d="M98.2808 83.0581V84.8618C98.2808 84.9653 98.2175 85.0574 98.1255 85.0977C97.5616 85.3394 95.6313 86.2254 94.8287 87.3415C92.7805 90.1924 91.2155 94.2687 87.7174 94.2687H73.1237C67.9513 94.2687 63.7599 90.063 63.7599 84.8733V84.7064C63.7599 84.5684 63.8721 84.4562 64.0102 84.4562H72.1456C72.3067 84.4562 72.4246 84.6058 72.4103 84.764C72.3527 85.2933 72.4505 85.8342 72.7008 86.3261C73.1841 87.307 74.1852 87.9198 75.2669 87.9198H79.2943V84.7755H75.3129C75.1087 84.7755 74.9878 84.5396 75.1058 84.3727C75.1489 84.3066 75.1978 84.2375 75.2496 84.1599C75.6265 83.6248 76.1644 82.7934 76.6995 81.847C77.0648 81.2084 77.4187 80.5265 77.7035 79.8419C77.761 79.7182 77.8071 79.5916 77.853 79.4679C77.9307 79.2493 78.0113 79.045 78.0688 78.8408C78.1263 78.6682 78.1724 78.487 78.2184 78.3172C78.3536 77.7361 78.4112 77.1205 78.4112 76.4818C78.4112 76.2316 78.3997 75.9698 78.3766 75.7195C78.3651 75.4462 78.3306 75.1729 78.2961 74.8997C78.273 74.658 78.2299 74.4192 78.1839 74.169C78.1263 73.8036 78.0458 73.4412 77.9537 73.0758L77.9221 72.9377C77.853 72.6875 77.7955 72.4487 77.715 72.1984C77.4877 71.413 77.2259 70.6478 76.9498 69.9315C76.8491 69.6467 76.734 69.3735 76.6189 69.1002C76.4492 68.6888 76.2766 68.3148 76.1184 67.9609C76.0378 67.7999 75.9688 67.6531 75.8998 67.5036C75.8221 67.3338 75.7415 67.1641 75.661 67.003C75.6035 66.8793 75.5372 66.7642 75.4913 66.6492L74.9993 65.7401C74.9303 65.6164 75.0454 65.4697 75.1805 65.5071L78.2587 66.3414H78.2673C78.273 66.3414 78.276 66.3442 78.2788 66.3442L78.6844 66.4564L79.1303 66.583L79.2943 66.629V64.7994C79.2943 63.9163 80.002 63.2 80.8765 63.2C81.3138 63.2 81.7107 63.3783 81.9955 63.6689C82.2803 63.9594 82.4587 64.3564 82.4587 64.7994V67.5151L82.7866 67.6071C82.8126 67.6157 82.8385 67.6272 82.8615 67.6445C82.942 67.7049 83.0571 67.7941 83.2038 67.9034C83.3189 67.9955 83.4426 68.1077 83.5922 68.2227C83.8885 68.4615 84.2423 68.7693 84.6306 69.1231C84.7342 69.2124 84.8349 69.3044 84.927 69.3965C85.4275 69.8625 85.9885 70.4091 86.5236 71.0132C86.6732 71.1829 86.8199 71.3555 86.9695 71.5367C87.119 71.7208 87.2773 71.9021 87.4153 72.0834C87.5966 72.325 87.7922 72.5752 87.9619 72.8371C88.0425 72.9608 88.1345 73.0873 88.2122 73.211C88.4308 73.5418 88.6236 73.8842 88.8077 74.2265C88.8853 74.3847 88.9659 74.5573 89.0349 74.7271C89.2392 75.1844 89.4003 75.6505 89.5038 76.1165C89.5355 76.2172 89.5585 76.3265 89.57 76.4244V76.4473C89.6045 76.5854 89.616 76.7322 89.6275 76.8817C89.6736 77.3592 89.6506 77.8368 89.547 78.3172C89.5038 78.5215 89.4463 78.7142 89.3773 78.9185C89.3082 79.1141 89.2392 79.3183 89.15 79.5111C88.9774 79.9109 88.7732 80.3108 88.5315 80.6848C88.4538 80.8228 88.3618 80.9696 88.2697 81.1076C88.169 81.2544 88.0655 81.3925 87.9734 81.5277C87.8469 81.7003 87.7116 81.8815 87.5736 82.0426C87.4499 82.2123 87.3233 82.3821 87.1852 82.5316C86.9925 82.7589 86.8084 82.9747 86.6156 83.1818C86.5006 83.317 86.3769 83.4551 86.2502 83.5788C86.1265 83.7169 86 83.8406 85.8849 83.9556C85.6922 84.1484 85.5311 84.298 85.3959 84.4216L85.0794 84.7122C85.0334 84.7525 84.973 84.7755 84.9097 84.7755H82.4587V87.9198H85.5426C86.233 87.9198 86.8889 87.6752 87.4182 87.2265C87.5995 87.0683 88.3906 86.3836 89.3255 85.3509C89.3571 85.3163 89.3974 85.2905 89.4434 85.2789L97.9614 82.8164C98.1197 82.7704 98.2808 82.8912 98.2808 83.0581Z" fill="#10151A"/>
</g>
</g>
<rect x="1" y="1" width="158" height="158" rx="39" stroke="#2A3744" stroke-width="2"/>
<defs>
<filter id="filter0_d_2_2382" x="5" y="5" width="150" height="150" filterUnits="userSpaceOnUse" color-interpolation-filters="sRGB">
<feFlood flood-opacity="0" result="BackgroundImageFix"/>
<feColorMatrix in="SourceAlpha" type="matrix" values="0 0 0 0 0 0 0 0 0 0 0 0 0 0 0 0 0 0 127 0" result="hardAlpha"/>
<feOffset/>
<feGaussianBlur stdDeviation="23.5"/>
<feComposite in2="hardAlpha" operator="out"/>
<feColorMatrix type="matrix" values="0 0 0 0 0.12549 0 0 0 0 0.505882 0 0 0 0 0.886275 0 0 0 0.3 0"/>
<feBlend mode="normal" in2="BackgroundImageFix" result="effect1_dropShadow_2_2382"/>
<feBlend mode="normal" in="SourceGraphic" in2="effect1_dropShadow_2_2382" result="shape"/>
</filter>
<linearGradient id="paint0_linear_2_2382" x1="79.9999" y1="52" x2="79.9999" y2="108" gradientUnits="userSpaceOnUse">
<stop stop-color="#3E99F3"/>
<stop offset="1" stop-color="#2081E2"/>
</linearGradient>
<clipPath id="clip0_2_2382">
<rect x="52" y="52" width="56" height="56" rx="28" fill="white"/>
</clipPath>
</defs>
</svg>

<svg width="160" height="160" fill="none" xmlns="http://www.w3.org/2000/svg"><rect x="1" y="1" width="158" height="158" rx="39" fill="#171E25"/><g filter="url(#filter0_d_2_2382)"><g clip-path="url(#clip0_2_2382)"><path d="M108 80c0 15.463-12.537 28-28 28S52 95.463 52 80s12.537-28 28-28c15.466 0 28 12.537 28 28z" fill="url(#paint0_linear_2_2382)"/><path d="M65.813 80.94l.121-.189 7.284-11.395a.249.249 0 01.437.032c1.217 2.727 2.267 6.119 1.775 8.23-.21.869-.785 2.046-1.432 3.133a5.762 5.762 0 01-.273.463.248.248 0 01-.208.11h-7.49a.249.249 0 01-.214-.383z" fill="#10151A"/><path d="M98.28 83.058v1.804a.26.26 0 01-.154.236c-.564.241-2.495 1.127-3.297 2.243-2.048 2.851-3.613 6.928-7.112 6.928H73.124c-5.173 0-9.364-4.206-9.364-9.396v-.167a.25.25 0 01.25-.25h8.136c.16 0 .279.15.264.308-.057.53.04 1.07.29 1.562a2.863 2.863 0 002.567 1.594h4.027v-3.145h-3.981a.256.256 0 01-.207-.402c.043-.066.092-.136.144-.213.376-.535.914-1.367 1.45-2.313a18.21 18.21 0 001.004-2.005c.057-.124.103-.25.149-.374.078-.219.158-.423.216-.627.057-.173.103-.354.15-.524a8.105 8.105 0 00.192-1.835c0-.25-.011-.512-.034-.763a9.881 9.881 0 00-.08-.82 8.537 8.537 0 00-.113-.73 12.33 12.33 0 00-.23-1.093l-.032-.138c-.069-.25-.126-.49-.207-.74-.227-.785-.49-1.55-.765-2.266-.1-.285-.216-.558-.331-.832-.17-.411-.342-.785-.5-1.14-.081-.16-.15-.307-.22-.456a13.72 13.72 0 00-.238-.501c-.058-.124-.124-.239-.17-.354L75 65.74a.16.16 0 01.181-.233l3.079.834h.008c.006 0 .009.003.012.003l.405.112.446.127.164.046v-1.83a1.59 1.59 0 011.582-1.599c.438 0 .835.178 1.12.469.284.29.463.687.463 1.13v2.716l.328.092a.29.29 0 01.075.037c.08.06.195.15.342.26.115.092.239.204.388.319.296.239.65.546 1.039.9a5.5 5.5 0 01.296.273c.5.466 1.061 1.013 1.597 1.617.15.17.296.343.445.524.15.184.308.365.446.546.182.242.377.492.547.754.08.124.172.25.25.374.219.33.412.673.596 1.016.077.158.158.33.227.5.204.457.365.923.469 1.39.031.1.054.21.066.307v.023c.035.138.046.285.058.435a4.643 4.643 0 01-.25 2.036c-.07.196-.139.4-.228.593-.173.4-.377.8-.619 1.174-.077.138-.17.285-.261.423-.101.146-.204.284-.297.42a8.782 8.782 0 01-.4.515c-.123.17-.25.34-.388.489-.192.227-.377.443-.57.65a5.921 5.921 0 01-.365.397c-.124.138-.25.262-.365.377-.193.192-.354.342-.49.466l-.316.29a.258.258 0 01-.17.063h-2.45v3.145h3.084c.69 0 1.346-.245 1.875-.694.181-.158.973-.842 1.907-1.875a.24.24 0 01.118-.072l8.518-2.463a.251.251 0 01.32.242z" fill="#10151A"/></g></g><rect x="1" y="1" width="158" height="158" rx="39" stroke="#2A3744" stroke-width="2"/><defs><linearGradient id="paint0_linear_2_2382" x1="80" y1="52" x2="80" y2="108" gradientUnits="userSpaceOnUse"><stop stop-color="#3E99F3"/><stop offset="1" stop-color="#2081E2"/></linearGradient><clipPath id="clip0_2_2382"><rect x="52" y="52" width="56" height="56" rx="28" fill="#fff"/></clipPath><filter id="filter0_d_2_2382" x="5" y="5" width="150" height="150" filterUnits="userSpaceOnUse" color-interpolation-filters="sRGB"><feFlood flood-opacity="0" result="BackgroundImageFix"/><feColorMatrix in="SourceAlpha" values="0 0 0 0 0 0 0 0 0 0 0 0 0 0 0 0 0 0 127 0" result="hardAlpha"/><feOffset/><feGaussianBlur stdDeviation="23.5"/><feComposite in2="hardAlpha" operator="out"/><feColorMatrix values="0 0 0 0 0.12549 0 0 0 0 0.505882 0 0 0 0 0.886275 0 0 0 0.3 0"/><feBlend in2="BackgroundImageFix" result="effect1_dropShadow_2_2382"/><feBlend in="SourceGraphic" in2="effect1_dropShadow_2_2382" result="shape"/></filter></defs></svg>
